X:2
T:Eric MacDonald's
R: reel
C:Ryan McKasson
L:1/8
M:4/4
K:Bmin
Bc|: d2 cB AFED | FBBA B2 de | cAde cAde | c/c/c de cABc | 
d2 cB AFED | FBBA BAFE | DB,DE CA,DE |1 E2 EF DB, Bc :|2 EF EF DB, B,2 ||
B,2 DB, FDGA | FDGA FDAD | EA, A,/2A,/2A, EA, DE | A,/2A,/2A, E DCA, A,/2A,/2A, | 
B,2 DB, FDGA | FAGA FDAD | EA, A,/2A,/2A, EA,DE | F2 EF DB, B,2 | 
B,2 DB, FDGA | FDGA FDef |dAef dAde | cAde cAdc | 
B2 dB fdga | faga fdad | eA A/A/A eAde | ef ef dB B2 |


